assets/img/braze_icons/thermometer-03.svg

<svg fill="none" height="24" viewBox="0 0 24 24" width="24" xmlns="http://www.w3.org/2000/svg"><g clip-rule="evenodd" fill="#801ed7" fill-rule="evenodd"><path d="m8 1c-1.933 0-3.5 1.567-3.5 3.5v8.7572c-1.22003 1.0077-2 2.534-2 4.2428 0 3.0376 2.46243 5.5 5.5 5.5 3.0376 0 5.5-2.4624 5.5-5.5 0-1.7088-.78-3.2351-2-4.2428v-8.7572c0-1.933-1.567-3.5-3.5-3.5zm0 14.5c-1.10457 0-2 .8954-2 2s.89543 2 2 2 2-.8954 2-2-.89543-2-2-2z"/><path d="m14 3c0-.55228.4477-1 1-1h6c.5523 0 1 .44772 1 1 0 .55229-.4477 1-1 1h-6c-.5523 0-1-.44772-1-1z"/><path d="m14 7c0-.55228.4477-1 1-1h6c.5523 0 1 .44772 1 1 0 .55229-.4477 1-1 1h-6c-.5523 0-1-.44772-1-1z"/><path d="m14 11c0-.5523.4477-1 1-1h6c.5523 0 1 .4477 1 1s-.4477 1-1 1h-6c-.5523 0-1-.4477-1-1z"/></g></svg>

<svg width="24" height="24" viewBox="0 0 24 24" fill="none" xmlns="http://www.w3.org/2000/svg">
<path fill-rule="evenodd" clip-rule="evenodd" d="M8 1C6.067 1 4.5 2.567 4.5 4.5V13.2572C3.27997 14.2649 2.5 15.7912 2.5 17.5C2.5 20.5376 4.96243 23 8 23C11.0376 23 13.5 20.5376 13.5 17.5C13.5 15.7912 12.72 14.2649 11.5 13.2572V4.5C11.5 2.567 9.933 1 8 1ZM8 15.5C6.89543 15.5 6 16.3954 6 17.5C6 18.6046 6.89543 19.5 8 19.5C9.10457 19.5 10 18.6046 10 17.5C10 16.3954 9.10457 15.5 8 15.5Z" fill="#801ED7"/>
<path fill-rule="evenodd" clip-rule="evenodd" d="M14 3C14 2.44772 14.4477 2 15 2L21 2C21.5523 2 22 2.44772 22 3C22 3.55229 21.5523 4 21 4L15 4C14.4477 4 14 3.55228 14 3Z" fill="#801ED7"/>
<path fill-rule="evenodd" clip-rule="evenodd" d="M14 7C14 6.44772 14.4477 6 15 6L21 6C21.5523 6 22 6.44772 22 7C22 7.55229 21.5523 8 21 8L15 8C14.4477 8 14 7.55228 14 7Z" fill="#801ED7"/>
<path fill-rule="evenodd" clip-rule="evenodd" d="M14 11C14 10.4477 14.4477 10 15 10L21 10C21.5523 10 22 10.4477 22 11C22 11.5523 21.5523 12 21 12L15 12C14.4477 12 14 11.5523 14 11Z" fill="#801ED7"/>
</svg>
